X: 02109
T: RALPH PAGE'S HORNPIPE
C: Bob McQuillen Jan'74
B: Bob's Note Book 1&2 #109
R: hornpipe, reel
Z: 2019 John Chambers <jc:trillian.mit.edu>
M: C
L: 1/8
K: G
(3(def) \
| g2fg edBG | Bdde d2 (3(def) | g2fg edBd | eAAB AcBA |
| B2e2 Beef | gfga bgfg | egdg egdc | B2G2 G2 :|
|: GA \
| BGBd edBA | B2G2 G2GA | Bcdc BAGF | G2E2 E2EF |
| GFGA BABd | edef gage | dgfe decd | B2G2 G2 :|
%%begintext align
%% Thanks a million, Ralph!
%%endtext

%%sep 1 1 500

%%sep 1 1 500

